X:1
T:Mountain, 76.76 D
T:Mountain, 76.76 D
T:Ira David Sankey, 1901
T:Public Domain Courtesy of the Cyber Hymnal™
C:Ira David Sankey, 1901
Z:Public Domain
Z:Courtesy of the Cyber Hymnal™
%%score ( 1 2 ) ( 3 4 )
L:1/8
Q:1/4=112
M:6/8
K:F
V:1 treble 
V:2 treble 
V:3 bass 
V:4 bass 
V:1
 C | [CA]2 [CA] (GD)[CE] | [CF]3 (CF)[FA] | [Fc]2 [CA] [Fd]2 [^FA] | [GB]3- [GB]2 [GB] | %5
 [GB]2 [GB] ([EG][FA])[EB] | [Fc]3 [FA]2 [EG] | [DF]2 [DF] (FE)[DF] | [EG]3- [EG]2 C | %9
 [CA]2 [CA] (GD)[CE] | [CF]3 CF[FA] | [Fc]2 [CA] [Fd]2 [^FA] | [GB]3- [GB]2 [Gd] | %13
 [Ge]2 [Ed] [Fc]2 [GB] | (A2 B) !fermata![Fc]2 [Ff] | ([Af][Fc])[FB] A2 [CG] | [CF]3- [CF]2 |] %17
V:2
 C | x3 B,2 x | x3 C2 x | x6 | x6 | x6 | x6 | x3 D2 x | x5 C | x3 B,2 x | x3 C2 x | x6 | x6 | x6 | %14
 F3 x3 | x3 (FC) x | x5 |] %17
V:3
 [F,A,] | F,2 F, (E,G,)[C,B,] | [F,A,]3 [F,A,]2 [F,C] | [F,A,]2 F, [D,A,]2 [D,D] | %4
 [G,D]3- [G,D]2 [G,D] | [C,C]2 [C,C] (B,A,)[C,G,] | [F,A,]3 [F,C]2 [C,B,] | %7
 [D,A,]2 [D,A,] [G,,=B,]2 [G,,B,] | [C,C]3- [C,C]2 [F,A,] | F,2 F, (E,G,)[C,B,] | %10
 [F,A,]3 [F,A,]2 [F,C] | [F,A,]2 F, [D,A,]2 [D,D] | [G,D]3- [G,D]2 [G,B,] | %13
 [C,B,]2 [C,B,] [D,A,]2 [E,C] | (C2 G,) !fermata![F,A,]2 [D,A,] | (CA,)[C,D] [C,C]2 [C,B,] | %16
 [F,A,]3- [F,A,]2 |] %17
V:4
 x | F,2 F, C,2 x | x6 | x2 F, x3 | x6 | x3 C,2 x | x6 | x6 | x6 | F,2 F, C,2 x | x6 | x2 F, x3 | %12
 x6 | x6 | F,3 x3 | C,2 x4 | x5 |] %17

